assets/img/braze_icons/sale-03.svg

<svg fill="none" height="24" viewBox="0 0 24 24" width="24" xmlns="http://www.w3.org/2000/svg"><path clip-rule="evenodd" d="m7.53953 1.23085c.74308-.307801 1.578-.307802 2.32108 0l1.74309.72205c.253.10443.5373.1043.7901-.00059l.002-.00082 1.7446-.71957c.7428-.307391 1.5779-.307491 2.3207.00017.7429.30775 1.3332.89797 1.641 1.64086l.7052 1.70257c.0063.01344.0123.02707.018.04089.1045.25283.3051.45383.5577.55889l1.7449.7228c.7431.30781 1.3335.8982 1.6413 1.64129.3077.74308.3077 1.578 0 2.32109l-.7224 1.74402c-.1051.2536-.1048.5378 0 .7895l.0008.0021.7208 1.7427c.1525.368.2312.7627.2312 1.161.0001.3984-.0783.7929-.2308 1.161s-.3759.7026-.6577.9842c-.2817.2816-.6161.505-.9841.6574l-1.744.7223c-.2527.1045-.4542.3053-.5593.5577l-.7229 1.7453c-.3078.7431-.8981 1.3335-1.6412 1.6413s-1.578.3078-2.3211 0l-1.7431-.7221c-.253-.1045-.5372-.1043-.7901.0006l-.001.0005-1.74518.7218c-.74267.3071-1.57697.3069-2.31945-.0007-.74247-.3075-1.33251-.8972-1.6405-1.6395l-.72334-1.7463c-.10461-.2531-.30566-.4547-.55849-.5597l-1.74437-.7226c-.74276-.3077-1.33295-.8977-1.64084-1.6404-.307903-.7426-.308321-1.5771-.00117-2.3201l.72228-1.7438c.10443-.253.1043-.5374-.00059-.7902l-.72144-1.74675c-.15242-.36787-.23115-.76276-.23121-1.16096-.000064-.39841.07838-.79294.23084-1.16103s.37596-.70253.65772-.98421c.28169-.28161.61609-.50497.98411-.65732l1.74393-.72239c.25256-.10443.454-.30497.55915-.55725l.72255-1.74445c.30778-.74309.89815-1.33348 1.64123-1.64129zm9.16757 7.47626c.3905-.39053.3905-1.02369 0-1.41422-.3905-.39052-1.0237-.39052-1.4142 0l-8.00001 8.00001c-.39052.3905-.39052 1.0237 0 1.4142.39053.3905 1.02369.3905 1.41422 0zm-9.2071.29289c0-.82843.67157-1.5 1.5-1.5s1.5.67157 1.5 1.5-.67157 1.5-1.5 1.5-1.5-.67157-1.5-1.5zm6 6c0-.8284.6716-1.5 1.5-1.5s1.5.6716 1.5 1.5-.6716 1.5-1.5 1.5-1.5-.6716-1.5-1.5z" fill="#801ed7" fill-rule="evenodd"/></svg>

<svg width="24" height="24" viewBox="0 0 24 24" fill="none" xmlns="http://www.w3.org/2000/svg">
<path fill-rule="evenodd" clip-rule="evenodd" d="M7.53953 1.23085C8.28261 0.923049 9.11753 0.923048 9.86061 1.23085L11.6037 1.9529C11.8567 2.05733 12.141 2.0572 12.3938 1.95231L12.3958 1.95149L14.1404 1.23192C14.8832 0.924529 15.7183 0.924429 16.4611 1.23209C17.204 1.53984 17.7943 2.13006 18.1021 2.87295L18.8073 4.57552C18.8136 4.58896 18.8196 4.60259 18.8253 4.61641C18.9298 4.86924 19.1304 5.07024 19.383 5.1753L21.1279 5.8981C21.871 6.20591 22.4614 6.7963 22.7692 7.53939C23.0769 8.28247 23.0769 9.11739 22.7692 9.86048L22.0468 11.6045C21.9417 11.8581 21.942 12.1423 22.0468 12.394L22.0476 12.3961L22.7684 14.1388C22.9209 14.5068 22.9996 14.9015 22.9996 15.2998C22.9997 15.6982 22.9213 16.0927 22.7688 16.4608C22.6163 16.8289 22.3929 17.1634 22.1111 17.445C21.8294 17.7266 21.495 17.95 21.127 18.1024L19.383 18.8247C19.1303 18.9292 18.9288 19.13 18.8237 19.3824L18.1008 21.1277C17.793 21.8708 17.2027 22.4612 16.4596 22.769C15.7165 23.0768 14.8816 23.0768 14.1385 22.769L12.3954 22.0469C12.1424 21.9424 11.8582 21.9426 11.6053 22.0475L11.6043 22.048L9.85912 22.7698C9.11645 23.0769 8.28215 23.0767 7.53967 22.7691C6.7972 22.4616 6.20716 21.8719 5.89917 21.1296L5.17583 19.3833C5.07122 19.1302 4.87017 18.9286 4.61734 18.8236L2.87297 18.101C2.13021 17.7933 1.54002 17.2033 1.23213 16.4606C0.924227 15.718 0.923809 14.8835 1.23096 14.1405L1.95324 12.3967C2.05767 12.1437 2.05754 11.8593 1.95265 11.6065L1.23121 9.85975C1.07879 9.49188 1.00006 9.09699 1 8.69879C0.999936 8.30038 1.07838 7.90585 1.23084 7.53776C1.3833 7.16967 1.6068 6.83523 1.88856 6.55355C2.17025 6.27194 2.50465 6.04858 2.87267 5.89623L4.6166 5.17384C4.86916 5.06941 5.0706 4.86887 5.17575 4.61659L5.8983 2.87214C6.20608 2.12905 6.79645 1.53866 7.53953 1.23085ZM16.7071 8.70711C17.0976 8.31658 17.0976 7.68342 16.7071 7.29289C16.3166 6.90237 15.6834 6.90237 15.2929 7.29289L7.29289 15.2929C6.90237 15.6834 6.90237 16.3166 7.29289 16.7071C7.68342 17.0976 8.31658 17.0976 8.70711 16.7071L16.7071 8.70711ZM7.5 9C7.5 8.17157 8.17157 7.5 9 7.5C9.82843 7.5 10.5 8.17157 10.5 9C10.5 9.82843 9.82843 10.5 9 10.5C8.17157 10.5 7.5 9.82843 7.5 9ZM13.5 15C13.5 14.1716 14.1716 13.5 15 13.5C15.8284 13.5 16.5 14.1716 16.5 15C16.5 15.8284 15.8284 16.5 15 16.5C14.1716 16.5 13.5 15.8284 13.5 15Z" fill="#801ED7"/>
</svg>
